X:1924
T:Bourrée du Meunier
S:Les Brayauds: Couleurs
M:3/8
L:1/8
K:C
G|eee|gee|gee|gf/g/f/e/|dc/d/c/d/|ecG|\
eee|gee|gee|gf/g/f/e/|dc/d/e/d/|c2:|
|:G|cd/c/B/A/|Gde|fg/f/e/d/|ecG|\
cd/c/B/A/|Gde|fg/f/e/d/|c2:|


